images/50715581.svg

<?xml version="1.0" encoding="UTF-8"?>
<svg xmlns="http://www.w3.org/2000/svg" xmlns:xlink="http://www.w3.org/1999/xlink" width="300pt" height="300pt" viewBox="0 0 300 300" version="1.1">
<defs>
<g>
<symbol overflow="visible" id="glyph0-0">
<path style="stroke:none;" d="M 0.453125 1.59375 L 0.453125 -6.34375 L 4.953125 -6.34375 L 4.953125 1.59375 Z M 0.953125 1.09375 L 4.453125 1.09375 L 4.453125 -5.84375 L 0.953125 -5.84375 Z M 0.953125 1.09375 "/>
</symbol>
<symbol overflow="visible" id="glyph0-1">
<path style="stroke:none;" d="M 0.890625 -6.5625 L 4.65625 -6.5625 L 4.65625 -5.8125 L 1.765625 -5.8125 L 1.765625 -3.875 L 4.375 -3.875 L 4.375 -3.140625 L 1.765625 -3.140625 L 1.765625 0 L 0.890625 0 Z M 0.890625 -6.5625 "/>
</symbol>
<symbol overflow="visible" id="glyph0-2">
<path style="stroke:none;" d="M 0.890625 -6.5625 L 2.078125 -6.5625 L 4.984375 -1.078125 L 4.984375 -6.5625 L 5.84375 -6.5625 L 5.84375 0 L 4.65625 0 L 1.75 -5.484375 L 1.75 0 L 0.890625 0 Z M 0.890625 -6.5625 "/>
</symbol>
<symbol overflow="visible" id="glyph0-3">
<path style="stroke:none;" d="M 3.546875 -5.953125 C 2.898438 -5.953125 2.382812 -5.710938 2 -5.234375 C 1.625 -4.753906 1.4375 -4.101562 1.4375 -3.28125 C 1.4375 -2.445312 1.625 -1.789062 2 -1.3125 C 2.382812 -0.832031 2.898438 -0.59375 3.546875 -0.59375 C 4.191406 -0.59375 4.703125 -0.832031 5.078125 -1.3125 C 5.453125 -1.789062 5.640625 -2.445312 5.640625 -3.28125 C 5.640625 -4.101562 5.453125 -4.753906 5.078125 -5.234375 C 4.703125 -5.710938 4.191406 -5.953125 3.546875 -5.953125 Z M 3.546875 -6.6875 C 4.460938 -6.6875 5.195312 -6.375 5.75 -5.75 C 6.300781 -5.132812 6.578125 -4.3125 6.578125 -3.28125 C 6.578125 -2.238281 6.300781 -1.410156 5.75 -0.796875 C 5.195312 -0.179688 4.460938 0.125 3.546875 0.125 C 2.617188 0.125 1.878906 -0.179688 1.328125 -0.796875 C 0.773438 -1.410156 0.5 -2.238281 0.5 -3.28125 C 0.5 -4.3125 0.773438 -5.132812 1.328125 -5.75 C 1.878906 -6.375 2.617188 -6.6875 3.546875 -6.6875 Z M 3.546875 -6.6875 "/>
</symbol>
<symbol overflow="visible" id="glyph0-4">
<path style="stroke:none;" d="M 0.890625 -6.5625 L 1.765625 -6.5625 L 1.765625 -3.875 L 5 -3.875 L 5 -6.5625 L 5.890625 -6.5625 L 5.890625 0 L 5 0 L 5 -3.125 L 1.765625 -3.125 L 1.765625 0 L 0.890625 0 Z M 0.890625 -6.5625 "/>
</symbol>
</g>
</defs>
<g id="surface21053">
<rect x="0" y="0" width="300" height="300" style="fill:rgb(100%,100%,100%);fill-opacity:1;stroke:none;"/>
<path style="fill:none;stroke-width:1.2;stroke-linecap:butt;stroke-linejoin:miter;stroke:rgb(20%,80%,80%);stroke-opacity:1;stroke-miterlimit:10;" d="M 79.726562 191.632812 L 77.976562 181.824219 "/>
<path style="fill:none;stroke-width:1.2;stroke-linecap:butt;stroke-linejoin:miter;stroke:rgb(0%,0%,0%);stroke-opacity:1;stroke-miterlimit:10;" d="M 77.976562 181.824219 L 76.226562 172.011719 "/>
<path style=" stroke:none;fill-rule:nonzero;fill:rgb(100%,100%,100%);fill-opacity:1;" d="M 76.726562 186.132812 L 82.726562 186.132812 L 82.726562 197.132812 L 76.726562 197.132812 Z M 76.726562 186.132812 "/>
<g style="fill:rgb(20%,80%,80%);fill-opacity:1;">
  <use xlink:href="#glyph0-1" x="76.726562" y="194.795898"/>
</g>
<path style="fill:none;stroke-width:1.2;stroke-linecap:butt;stroke-linejoin:miter;stroke:rgb(0%,0%,0%);stroke-opacity:1;stroke-miterlimit:10;" d="M 76.226562 172.011719 L 57.488281 165.234375 "/>
<path style="fill:none;stroke-width:1.2;stroke-linecap:butt;stroke-linejoin:miter;stroke:rgb(0%,0%,0%);stroke-opacity:1;stroke-miterlimit:10;" d="M 75.949219 166.925781 L 60.957031 161.5 "/>
<path style="fill:none;stroke-width:1.2;stroke-linecap:butt;stroke-linejoin:miter;stroke:rgb(0%,0%,0%);stroke-opacity:1;stroke-miterlimit:10;" d="M 91.46875 159.175781 L 76.226562 172.011719 "/>
<path style="fill:none;stroke-width:1.2;stroke-linecap:butt;stroke-linejoin:miter;stroke:rgb(0%,0%,0%);stroke-opacity:1;stroke-miterlimit:10;" d="M 57.488281 165.234375 L 53.988281 145.613281 "/>
<path style="fill:none;stroke-width:1.2;stroke-linecap:butt;stroke-linejoin:miter;stroke:rgb(0%,0%,0%);stroke-opacity:1;stroke-miterlimit:10;" d="M 53.988281 145.613281 L 44.621094 142.222656 "/>
<path style="fill:none;stroke-width:1.2;stroke-linecap:butt;stroke-linejoin:miter;stroke:rgb(20%,80%,80%);stroke-opacity:1;stroke-miterlimit:10;" d="M 44.621094 142.222656 L 35.25 138.832031 "/>
<path style="fill:none;stroke-width:1.2;stroke-linecap:butt;stroke-linejoin:miter;stroke:rgb(0%,0%,0%);stroke-opacity:1;stroke-miterlimit:10;" d="M 53.988281 145.613281 L 69.230469 132.773438 "/>
<path style="fill:none;stroke-width:1.2;stroke-linecap:butt;stroke-linejoin:miter;stroke:rgb(0%,0%,0%);stroke-opacity:1;stroke-miterlimit:10;" d="M 58.535156 147.914062 L 70.730469 137.644531 "/>
<path style=" stroke:none;fill-rule:nonzero;fill:rgb(100%,100%,100%);fill-opacity:1;" d="M 29.25 133.332031 L 35.25 133.332031 L 35.25 144.332031 L 29.25 144.332031 Z M 29.25 133.332031 "/>
<g style="fill:rgb(20%,80%,80%);fill-opacity:1;">
  <use xlink:href="#glyph0-1" x="29.25" y="141.995117"/>
</g>
<path style="fill:none;stroke-width:1.2;stroke-linecap:butt;stroke-linejoin:miter;stroke:rgb(0%,0%,0%);stroke-opacity:1;stroke-miterlimit:10;" d="M 69.230469 132.773438 L 87.972656 139.554688 "/>
<path style="fill:none;stroke-width:1.2;stroke-linecap:butt;stroke-linejoin:miter;stroke:rgb(0%,0%,0%);stroke-opacity:1;stroke-miterlimit:10;" d="M 87.972656 139.554688 L 91.46875 159.175781 "/>
<path style="fill:none;stroke-width:1.2;stroke-linecap:butt;stroke-linejoin:miter;stroke:rgb(0%,0%,0%);stroke-opacity:1;stroke-miterlimit:10;" d="M 83.707031 142.339844 L 86.503906 158.035156 "/>
<path style="fill:none;stroke-width:1.2;stroke-linecap:butt;stroke-linejoin:miter;stroke:rgb(0%,0%,0%);stroke-opacity:1;stroke-miterlimit:10;" d="M 91.46875 159.175781 L 110.210938 165.957031 "/>
<path style="fill:none;stroke-width:1.2;stroke-linecap:butt;stroke-linejoin:miter;stroke:rgb(0%,0%,0%);stroke-opacity:1;stroke-miterlimit:10;" d="M 110.210938 165.957031 L 118.460938 160.367188 "/>
<path style="fill:none;stroke-width:1.2;stroke-linecap:butt;stroke-linejoin:miter;stroke:rgb(0%,0%,100%);stroke-opacity:1;stroke-miterlimit:10;" d="M 118.460938 160.367188 L 126.710938 154.78125 "/>
<path style="fill:none;stroke-width:1.2;stroke-linecap:butt;stroke-linejoin:miter;stroke:rgb(0%,0%,100%);stroke-opacity:1;stroke-miterlimit:10;" d="M 115.738281 185.101562 L 112.972656 175.527344 "/>
<path style="fill:none;stroke-width:1.2;stroke-linecap:butt;stroke-linejoin:miter;stroke:rgb(0%,0%,0%);stroke-opacity:1;stroke-miterlimit:10;" d="M 112.972656 175.527344 L 110.210938 165.957031 "/>
<path style="fill:none;stroke-width:1.2;stroke-linecap:butt;stroke-linejoin:miter;stroke:rgb(0%,0%,100%);stroke-opacity:1;stroke-miterlimit:10;" d="M 119.691406 181.886719 L 117.480469 174.226562 "/>
<path style="fill:none;stroke-width:1.2;stroke-linecap:butt;stroke-linejoin:miter;stroke:rgb(0%,0%,0%);stroke-opacity:1;stroke-miterlimit:10;" d="M 117.480469 174.226562 L 115.265625 166.570312 "/>
<path style="fill:none;stroke-width:1.2;stroke-linecap:butt;stroke-linejoin:miter;stroke:rgb(0%,0%,100%);stroke-opacity:1;stroke-miterlimit:10;" d="M 126.710938 154.78125 L 129.445312 135.039062 "/>
<path style="fill:none;stroke-width:1.2;stroke-linecap:butt;stroke-linejoin:miter;stroke:rgb(0%,0%,0%);stroke-opacity:1;stroke-miterlimit:10;" d="M 142.4375 167.019531 L 134.574219 160.898438 "/>
<path style="fill:none;stroke-width:1.2;stroke-linecap:butt;stroke-linejoin:miter;stroke:rgb(0%,0%,100%);stroke-opacity:1;stroke-miterlimit:10;" d="M 134.574219 160.898438 L 126.710938 154.78125 "/>
<path style=" stroke:none;fill-rule:nonzero;fill:rgb(100%,100%,100%);fill-opacity:1;" d="M 123.710938 149.28125 L 130.710938 149.28125 L 130.710938 160.28125 L 123.710938 160.28125 Z M 123.710938 149.28125 "/>
<g style="fill:rgb(0%,0%,100%);fill-opacity:1;">
  <use xlink:href="#glyph0-2" x="123.710938" y="157.944336"/>
</g>
<path style="fill:none;stroke-width:1.2;stroke-linecap:butt;stroke-linejoin:miter;stroke:rgb(0%,0%,100%);stroke-opacity:1;stroke-miterlimit:10;" d="M 129.445312 135.039062 L 121.582031 128.921875 "/>
<path style="fill:none;stroke-width:1.2;stroke-linecap:butt;stroke-linejoin:miter;stroke:rgb(0%,0%,0%);stroke-opacity:1;stroke-miterlimit:10;" d="M 121.582031 128.921875 L 113.71875 122.800781 "/>
<path style="fill:none;stroke-width:1.2;stroke-linecap:butt;stroke-linejoin:miter;stroke:rgb(0%,0%,100%);stroke-opacity:1;stroke-miterlimit:10;" d="M 129.445312 135.039062 L 138.679688 131.289062 "/>
<path style="fill:none;stroke-width:1.2;stroke-linecap:butt;stroke-linejoin:miter;stroke:rgb(0%,0%,0%);stroke-opacity:1;stroke-miterlimit:10;" d="M 138.679688 131.289062 L 147.910156 127.539062 "/>
<path style=" stroke:none;fill-rule:nonzero;fill:rgb(100%,100%,100%);fill-opacity:1;" d="M 126.445312 129.539062 L 133.445312 129.539062 L 133.445312 140.539062 L 126.445312 140.539062 Z M 126.445312 129.539062 "/>
<g style="fill:rgb(0%,0%,100%);fill-opacity:1;">
  <use xlink:href="#glyph0-2" x="126.445312" y="138.202148"/>
</g>
<path style="fill:none;stroke-width:1.2;stroke-linecap:butt;stroke-linejoin:miter;stroke:rgb(0%,0%,0%);stroke-opacity:1;stroke-miterlimit:10;" d="M 150.230469 127.859375 L 151.601562 117.992188 "/>
<path style="fill:none;stroke-width:1.2;stroke-linecap:butt;stroke-linejoin:miter;stroke:rgb(100%,0%,0%);stroke-opacity:1;stroke-miterlimit:10;" d="M 151.601562 117.992188 L 152.96875 108.121094 "/>
<path style="fill:none;stroke-width:1.2;stroke-linecap:butt;stroke-linejoin:miter;stroke:rgb(0%,0%,0%);stroke-opacity:1;stroke-miterlimit:10;" d="M 145.585938 127.21875 L 146.957031 117.347656 "/>
<path style="fill:none;stroke-width:1.2;stroke-linecap:butt;stroke-linejoin:miter;stroke:rgb(100%,0%,0%);stroke-opacity:1;stroke-miterlimit:10;" d="M 146.957031 117.347656 L 148.324219 107.476562 "/>
<path style="fill:none;stroke-width:1.2;stroke-linecap:butt;stroke-linejoin:miter;stroke:rgb(0%,0%,0%);stroke-opacity:1;stroke-miterlimit:10;" d="M 147.910156 127.539062 L 163.636719 139.777344 "/>
<path style=" stroke:none;fill-rule:nonzero;fill:rgb(100%,100%,100%);fill-opacity:1;" d="M 146.644531 102.300781 L 154.644531 102.300781 L 154.644531 113.300781 L 146.644531 113.300781 Z M 146.644531 102.300781 "/>
<g style="fill:rgb(100%,0%,0%);fill-opacity:1;">
  <use xlink:href="#glyph0-3" x="146.644531" y="110.963867"/>
</g>
<path style="fill:none;stroke-width:1.2;stroke-linecap:butt;stroke-linejoin:miter;stroke:rgb(0%,0%,0%);stroke-opacity:1;stroke-miterlimit:10;" d="M 163.636719 139.777344 L 160.902344 159.519531 "/>
<path style="fill:none;stroke-width:1.2;stroke-linecap:butt;stroke-linejoin:miter;stroke:rgb(0%,0%,0%);stroke-opacity:1;stroke-miterlimit:10;" d="M 158.71875 141.109375 L 156.53125 156.902344 "/>
<path style="fill:none;stroke-width:1.2;stroke-linecap:butt;stroke-linejoin:miter;stroke:rgb(0%,0%,0%);stroke-opacity:1;stroke-miterlimit:10;" d="M 163.636719 139.777344 L 182.101562 132.277344 "/>
<path style="fill:none;stroke-width:1.2;stroke-linecap:butt;stroke-linejoin:miter;stroke:rgb(0%,0%,0%);stroke-opacity:1;stroke-miterlimit:10;" d="M 160.902344 159.519531 L 142.4375 167.019531 "/>
<path style="fill:none;stroke-width:1.2;stroke-linecap:butt;stroke-linejoin:miter;stroke:rgb(0%,0%,0%);stroke-opacity:1;stroke-miterlimit:10;" d="M 142.4375 167.019531 L 139.046875 176.390625 "/>
<path style="fill:none;stroke-width:1.2;stroke-linecap:butt;stroke-linejoin:miter;stroke:rgb(0%,0%,100%);stroke-opacity:1;stroke-miterlimit:10;" d="M 139.046875 176.390625 L 135.65625 185.757812 "/>
<path style="fill:none;stroke-width:1.2;stroke-linecap:butt;stroke-linejoin:miter;stroke:rgb(0%,0%,0%);stroke-opacity:1;stroke-miterlimit:10;" d="M 137.351562 167.296875 L 134.636719 174.792969 "/>
<path style="fill:none;stroke-width:1.2;stroke-linecap:butt;stroke-linejoin:miter;stroke:rgb(0%,0%,100%);stroke-opacity:1;stroke-miterlimit:10;" d="M 134.636719 174.792969 L 131.925781 182.289062 "/>
<path style="fill:none;stroke-width:1.2;stroke-linecap:butt;stroke-linejoin:miter;stroke:rgb(0%,0%,100%);stroke-opacity:1;stroke-miterlimit:10;" d="M 135.65625 185.757812 L 115.738281 185.101562 "/>
<path style=" stroke:none;fill-rule:nonzero;fill:rgb(100%,100%,100%);fill-opacity:1;" d="M 132.65625 180.257812 L 139.65625 180.257812 L 139.65625 191.257812 L 132.65625 191.257812 Z M 132.65625 180.257812 "/>
<g style="fill:rgb(0%,0%,100%);fill-opacity:1;">
  <use xlink:href="#glyph0-2" x="132.65625" y="188.920898"/>
</g>
<path style=" stroke:none;fill-rule:nonzero;fill:rgb(100%,100%,100%);fill-opacity:1;" d="M 112.738281 179.601562 L 119.738281 179.601562 L 119.738281 190.601562 L 112.738281 190.601562 Z M 112.738281 179.601562 "/>
<g style="fill:rgb(0%,0%,100%);fill-opacity:1;">
  <use xlink:href="#glyph0-2" x="112.738281" y="188.264648"/>
</g>
<path style="fill:none;stroke-width:1.2;stroke-linecap:butt;stroke-linejoin:miter;stroke:rgb(0%,0%,0%);stroke-opacity:1;stroke-miterlimit:10;" d="M 182.101562 132.277344 L 197.828125 144.519531 "/>
<path style="fill:none;stroke-width:1.2;stroke-linecap:butt;stroke-linejoin:miter;stroke:rgb(0%,0%,0%);stroke-opacity:1;stroke-miterlimit:10;" d="M 186.554688 129.800781 L 199.136719 139.59375 "/>
<path style="fill:none;stroke-width:1.2;stroke-linecap:butt;stroke-linejoin:miter;stroke:rgb(0%,0%,0%);stroke-opacity:1;stroke-miterlimit:10;" d="M 184.835938 112.539062 L 182.101562 132.277344 "/>
<path style="fill:none;stroke-width:1.2;stroke-linecap:butt;stroke-linejoin:miter;stroke:rgb(0%,0%,0%);stroke-opacity:1;stroke-miterlimit:10;" d="M 197.828125 144.519531 L 216.292969 137.019531 "/>
<path style="fill:none;stroke-width:1.2;stroke-linecap:butt;stroke-linejoin:miter;stroke:rgb(0%,0%,0%);stroke-opacity:1;stroke-miterlimit:10;" d="M 216.292969 137.019531 L 219.027344 117.277344 "/>
<path style="fill:none;stroke-width:1.2;stroke-linecap:butt;stroke-linejoin:miter;stroke:rgb(0%,0%,0%);stroke-opacity:1;stroke-miterlimit:10;" d="M 211.921875 134.398438 L 214.109375 118.609375 "/>
<path style="fill:none;stroke-width:1.2;stroke-linecap:butt;stroke-linejoin:miter;stroke:rgb(0%,0%,0%);stroke-opacity:1;stroke-miterlimit:10;" d="M 216.292969 137.019531 L 232.019531 149.257812 "/>
<path style="fill:none;stroke-width:1.2;stroke-linecap:butt;stroke-linejoin:miter;stroke:rgb(0%,0%,0%);stroke-opacity:1;stroke-miterlimit:10;" d="M 219.027344 117.277344 L 203.300781 105.039062 "/>
<path style="fill:none;stroke-width:1.2;stroke-linecap:butt;stroke-linejoin:miter;stroke:rgb(0%,0%,0%);stroke-opacity:1;stroke-miterlimit:10;" d="M 203.300781 105.039062 L 184.835938 112.539062 "/>
<path style="fill:none;stroke-width:1.2;stroke-linecap:butt;stroke-linejoin:miter;stroke:rgb(0%,0%,0%);stroke-opacity:1;stroke-miterlimit:10;" d="M 203.21875 110.132812 L 188.449219 116.132812 "/>
<path style="fill:none;stroke-width:1.2;stroke-linecap:butt;stroke-linejoin:miter;stroke:rgb(0%,0%,0%);stroke-opacity:1;stroke-miterlimit:10;" d="M 184.835938 112.539062 L 169.109375 100.300781 "/>
<path style="fill:none;stroke-width:1.2;stroke-linecap:butt;stroke-linejoin:miter;stroke:rgb(0%,0%,0%);stroke-opacity:1;stroke-miterlimit:10;" d="M 232.902344 151.429688 L 242.132812 147.679688 "/>
<path style="fill:none;stroke-width:1.2;stroke-linecap:butt;stroke-linejoin:miter;stroke:rgb(100%,0%,0%);stroke-opacity:1;stroke-miterlimit:10;" d="M 242.132812 147.679688 L 251.363281 143.929688 "/>
<path style="fill:none;stroke-width:1.2;stroke-linecap:butt;stroke-linejoin:miter;stroke:rgb(0%,0%,0%);stroke-opacity:1;stroke-miterlimit:10;" d="M 231.136719 147.085938 L 240.367188 143.335938 "/>
<path style="fill:none;stroke-width:1.2;stroke-linecap:butt;stroke-linejoin:miter;stroke:rgb(100%,0%,0%);stroke-opacity:1;stroke-miterlimit:10;" d="M 240.367188 143.335938 L 249.601562 139.585938 "/>
<path style="fill:none;stroke-width:1.2;stroke-linecap:butt;stroke-linejoin:miter;stroke:rgb(0%,0%,0%);stroke-opacity:1;stroke-miterlimit:10;" d="M 232.019531 149.257812 L 230.652344 159.128906 "/>
<path style="fill:none;stroke-width:1.2;stroke-linecap:butt;stroke-linejoin:miter;stroke:rgb(0%,0%,100%);stroke-opacity:1;stroke-miterlimit:10;" d="M 230.652344 159.128906 L 229.28125 168.996094 "/>
<path style=" stroke:none;fill-rule:nonzero;fill:rgb(100%,100%,100%);fill-opacity:1;" d="M 246.480469 136.257812 L 254.480469 136.257812 L 254.480469 147.257812 L 246.480469 147.257812 Z M 246.480469 136.257812 "/>
<g style="fill:rgb(100%,0%,0%);fill-opacity:1;">
  <use xlink:href="#glyph0-3" x="246.480469" y="144.920898"/>
</g>
<path style="fill:none;stroke-width:1.2;stroke-linecap:butt;stroke-linejoin:miter;stroke:rgb(0%,0%,100%);stroke-opacity:1;stroke-miterlimit:10;" d="M 229.28125 168.996094 L 237.144531 175.117188 "/>
<path style="fill:none;stroke-width:1.2;stroke-linecap:butt;stroke-linejoin:miter;stroke:rgb(0%,0%,0%);stroke-opacity:1;stroke-miterlimit:10;" d="M 237.144531 175.117188 L 245.011719 181.238281 "/>
<path style=" stroke:none;fill-rule:nonzero;fill:rgb(100%,100%,100%);fill-opacity:1;" d="M 222.28125 163.496094 L 236.28125 163.496094 L 236.28125 174.496094 L 222.28125 174.496094 Z M 222.28125 163.496094 "/>
<g style="fill:rgb(0%,0%,100%);fill-opacity:1;">
  <use xlink:href="#glyph0-2" x="222.28125" y="172.15918"/>
  <use xlink:href="#glyph0-4" x="229.258789" y="172.15918"/>
</g>
<path style="fill:none;stroke-width:1.2;stroke-linecap:butt;stroke-linejoin:miter;stroke:rgb(0%,0%,0%);stroke-opacity:1;stroke-miterlimit:10;" d="M 245.011719 181.238281 L 264.75 183.972656 "/>
<path style="fill:none;stroke-width:1.2;stroke-linecap:butt;stroke-linejoin:miter;stroke:rgb(0%,0%,0%);stroke-opacity:1;stroke-miterlimit:10;" d="M 252.511719 199.699219 L 245.011719 181.238281 "/>
<path style="fill:none;stroke-width:1.2;stroke-linecap:butt;stroke-linejoin:miter;stroke:rgb(0%,0%,0%);stroke-opacity:1;stroke-miterlimit:10;" d="M 264.75 183.972656 L 252.511719 199.699219 "/>
</g>
</svg>

<svg xmlns="http://www.w3.org/2000/svg" xmlns:xlink="http://www.w3.org/1999/xlink" width="300pt" height="300pt" viewBox="0 0 300 300"><defs><symbol overflow="visible"><path d="M.453 1.594v-7.938h4.5v7.938zm.5-.5h3.5v-6.938h-3.5zm0 0"/></symbol><symbol overflow="visible" id="a"><path d="M.89-6.563h3.766v.75h-2.89v1.938h2.61v.734h-2.61V0H.89zm0 0"/></symbol><symbol overflow="visible" id="b"><path d="M.89-6.563H2.08l2.906 5.485v-5.484h.86V0H4.656L1.75-5.484V0H.89zm0 0"/></symbol><symbol overflow="visible" id="c"><path d="M3.547-5.953c-.65 0-1.164.242-1.547.72-.375.48-.563 1.13-.563 1.952 0 .835.188 1.49.563 1.967.383.48.898.72 1.547.72.644 0 1.156-.24 1.53-.72.376-.476.564-1.132.564-1.968 0-.822-.187-1.474-.562-1.954-.375-.477-.887-.72-1.53-.72zm0-.734c.914 0 1.648.312 2.203.937.55.617.828 1.438.828 2.47 0 1.042-.277 1.87-.828 2.483-.555.617-1.29.922-2.203.922-.93 0-1.668-.305-2.22-.922C.774-1.41.5-2.237.5-3.28c0-1.033.273-1.853.828-2.47.55-.625 1.29-.938 2.22-.938zm0 0"/></symbol><symbol overflow="visible" id="d"><path d="M.89-6.563h.876v2.688H5v-2.688h.89V0H5v-3.125H1.766V0H.89zm0 0"/></symbol></defs><g><path fill="#fff" d="M0 0h300v300H0z"/><path d="M79.727 191.633l-1.75-9.81" stroke-width="1.2" stroke="#3cc" stroke-miterlimit="10" fill="none"/><path d="M77.977 181.824l-1.75-9.812" stroke-width="1.2" stroke="#000" stroke-miterlimit="10" fill="none"/><path d="M76.727 186.133h6v11h-6zm0 0" fill="#fff"/><use xlink:href="#a" x="76.727" y="194.796" fill="#3cc"/><path d="M76.227 172.012l-18.74-6.778M75.95 166.926L60.956 161.5M91.47 159.176l-15.243 12.836M57.488 165.234l-3.5-19.62M53.988 145.613l-9.367-3.39" stroke-width="1.2" stroke="#000" stroke-miterlimit="10" fill="none"/><path d="M44.62 142.223l-9.37-3.39" stroke-width="1.2" stroke="#3cc" stroke-miterlimit="10" fill="none"/><path d="M53.988 145.613l15.242-12.84M58.535 147.914l12.195-10.27" stroke-width="1.2" stroke="#000" stroke-miterlimit="10" fill="none"/><path d="M29.25 133.332h6v11h-6zm0 0" fill="#fff"/><use xlink:href="#a" x="29.25" y="141.995" fill="#3cc"/><path d="M69.23 132.773l18.743 6.782M87.973 139.555l3.496 19.62M83.707 142.34l2.797 15.695M91.47 159.176l18.74 6.78M110.21 165.957l8.25-5.59" stroke-width="1.2" stroke="#000" stroke-miterlimit="10" fill="none"/><path d="M118.46 160.367l8.25-5.586M115.738 185.102l-2.765-9.575" stroke-width="1.2" stroke="#00f" stroke-miterlimit="10" fill="none"/><path d="M112.973 175.527l-2.762-9.57" stroke-width="1.2" stroke="#000" stroke-miterlimit="10" fill="none"/><path d="M119.69 181.887l-2.21-7.66" stroke-width="1.2" stroke="#00f" stroke-miterlimit="10" fill="none"/><path d="M117.48 174.227l-2.214-7.657" stroke-width="1.2" stroke="#000" stroke-miterlimit="10" fill="none"/><path d="M126.71 154.78l2.735-19.74" stroke-width="1.2" stroke="#00f" stroke-miterlimit="10" fill="none"/><path d="M142.438 167.02l-7.864-6.122" stroke-width="1.2" stroke="#000" stroke-miterlimit="10" fill="none"/><path d="M134.574 160.898l-7.863-6.117" stroke-width="1.2" stroke="#00f" stroke-miterlimit="10" fill="none"/><path d="M123.71 149.28h7v11h-7zm0 0" fill="#fff"/><use xlink:href="#b" x="123.711" y="157.944" fill="#00f"/><path d="M129.445 135.04l-7.863-6.118" stroke-width="1.2" stroke="#00f" stroke-miterlimit="10" fill="none"/><path d="M121.582 128.922l-7.863-6.12" stroke-width="1.2" stroke="#000" stroke-miterlimit="10" fill="none"/><path d="M129.445 135.04l9.235-3.75" stroke-width="1.2" stroke="#00f" stroke-miterlimit="10" fill="none"/><path d="M138.68 131.29l9.23-3.75" stroke-width="1.2" stroke="#000" stroke-miterlimit="10" fill="none"/><path d="M126.445 129.54h7v11h-7zm0 0" fill="#fff"/><use xlink:href="#b" x="126.445" y="138.202" fill="#00f"/><path d="M150.23 127.86l1.372-9.868" stroke-width="1.2" stroke="#000" stroke-miterlimit="10" fill="none"/><path d="M151.602 117.992l1.367-9.87" stroke-width="1.2" stroke="#f00" stroke-miterlimit="10" fill="none"/><path d="M145.586 127.22l1.37-9.872" stroke-width="1.2" stroke="#000" stroke-miterlimit="10" fill="none"/><path d="M146.957 117.348l1.367-9.87" stroke-width="1.2" stroke="#f00" stroke-miterlimit="10" fill="none"/><path d="M147.91 127.54l15.727 12.237" stroke-width="1.2" stroke="#000" stroke-miterlimit="10" fill="none"/><path d="M146.645 102.3h8v11h-8zm0 0" fill="#fff"/><use xlink:href="#c" x="146.645" y="110.964" fill="#f00"/><path d="M163.637 139.777l-2.735 19.743M158.72 141.11l-2.19 15.792M163.637 139.777l18.465-7.5M160.902 159.52l-18.464 7.5M142.438 167.02l-3.39 9.37" stroke-width="1.2" stroke="#000" stroke-miterlimit="10" fill="none"/><path d="M139.047 176.39l-3.39 9.368" stroke-width="1.2" stroke="#00f" stroke-miterlimit="10" fill="none"/><path d="M137.352 167.297l-2.715 7.496" stroke-width="1.2" stroke="#000" stroke-miterlimit="10" fill="none"/><path d="M134.637 174.793l-2.71 7.496M135.656 185.758l-19.918-.656" stroke-width="1.2" stroke="#00f" stroke-miterlimit="10" fill="none"/><path d="M132.656 180.258h7v11h-7zm0 0" fill="#fff"/><use xlink:href="#b" x="132.656" y="188.921" fill="#00f"/><path d="M112.738 179.602h7v11h-7zm0 0" fill="#fff"/><use xlink:href="#b" x="112.738" y="188.265" fill="#00f"/><path d="M182.102 132.277l15.726 12.243M186.555 129.8l12.582 9.794M184.836 112.54l-2.734 19.737M197.828 144.52l18.465-7.5M216.293 137.02l2.734-19.743M211.922 134.398l2.187-15.79M216.293 137.02l15.727 12.238M219.027 117.277L203.3 105.04M203.3 105.04l-18.464 7.5M203.22 110.133l-14.77 6M184.836 112.54L169.11 100.3M232.902 151.43l9.23-3.75" stroke-width="1.2" stroke="#000" stroke-miterlimit="10" fill="none"/><path d="M242.133 147.68l9.23-3.75" stroke-width="1.2" stroke="#f00" stroke-miterlimit="10" fill="none"/><path d="M231.137 147.086l9.23-3.75" stroke-width="1.2" stroke="#000" stroke-miterlimit="10" fill="none"/><path d="M240.367 143.336l9.235-3.75" stroke-width="1.2" stroke="#f00" stroke-miterlimit="10" fill="none"/><path d="M232.02 149.258l-1.368 9.87" stroke-width="1.2" stroke="#000" stroke-miterlimit="10" fill="none"/><path d="M230.652 159.13l-1.37 9.866" stroke-width="1.2" stroke="#00f" stroke-miterlimit="10" fill="none"/><path d="M246.48 136.258h8v11h-8zm0 0" fill="#fff"/><use xlink:href="#c" x="246.48" y="144.921" fill="#f00"/><path d="M229.28 168.996l7.865 6.12" stroke-width="1.2" stroke="#00f" stroke-miterlimit="10" fill="none"/><path d="M237.145 175.117l7.867 6.12" stroke-width="1.2" stroke="#000" stroke-miterlimit="10" fill="none"/><path d="M222.28 163.496h14v11h-14zm0 0" fill="#fff"/><g fill="#00f"><use xlink:href="#b" x="222.281" y="172.159"/><use xlink:href="#d" x="229.259" y="172.159"/></g><path d="M245.012 181.238l19.738 2.735M252.512 199.7l-7.5-18.462M264.75 183.973L252.512 199.7" stroke-width="1.2" stroke="#000" stroke-miterlimit="10" fill="none"/></g></svg>
